src/static/logos/customerio.svg

<svg width="256" height="172" xmlns="http://www.w3.org/2000/svg" preserveAspectRatio="xMidYMid"><path d="M48.832 73.919l28.194-19.498 50.954 35.323L256 1.052 0 .998l48.832 33.868v39.053zm79.146 3.325l-45.94-31.872 145.509-33.566-99.569 65.438zM32.992 11.333l191.827-4.03L60.172 30.246l-27.18-18.913z" fill="#235A5A"/><path d="M255.998 13.362L127.91 102.313l-.038-.026-.003.001L76.96 66.88 38.47 93.646V40.279L.288 13.678v125.61c.485 10.044 4.992 18.766 11.376 25.011 3.284 3.207 7.713 6.426 16.027 7.652l5.728-3.981-5.723 3.981a28.51 28.51 0 003.656.25h98.286l.003-.002h95.253C242 172.199 256 156.552 256 137.423V84.329l-.002-.003V13.362" fill="#235A5A"/><path d="M38.47 40.279L.288 13.678v106.519L38.47 93.646V40.279" fill="#82BFBE"/><path d="M224.894 172.198C242 172.198 256 156.552 256 137.423V84.329l-126.362 87.869h95.256" fill="#235A5A"/><path d="M256 13.36l-128.09 88.954-.038-.027-100.176 69.664a28.51 28.51 0 003.656.25h98.286l126.36-87.874V13.36H256" fill="#2C7A79"/><path d="M76.96 66.88L.288 120.197v19.091c.485 10.044 4.992 18.766 11.376 25.011 3.284 3.207 7.713 6.426 16.027 7.652l100.214-69.637L76.96 66.88" fill="#389798"/></svg>

<?xml version="1.0" encoding="UTF-8" standalone="no"?>
<svg width="256px" height="172px" viewBox="0 0 256 172" version="1.1" xmlns="http://www.w3.org/2000/svg" xmlns:xlink="http://www.w3.org/1999/xlink" preserveAspectRatio="xMidYMid">
	<g>
		<path d="M48.832,73.919 L77.026,54.421 L127.98,89.744 L256,1.052 L0,0.998 L48.832,34.866 L48.832,73.919 L48.832,73.919 Z M127.978,77.244 L82.038,45.372 L227.547,11.806 L127.978,77.244 L127.978,77.244 Z M32.992,11.333 L224.819,7.303 L60.172,30.246 L32.992,11.333 L32.992,11.333 Z" fill="#235A5A"></path>
		<path d="M255.998,13.362 L127.91,102.313 L127.872,102.287 L127.869,102.288 L76.96,66.88 L38.47,93.646 L38.47,40.279 L0.288,13.678 L0.288,139.288 C0.773,149.332 5.28,158.054 11.664,164.299 C14.948,167.506 19.377,170.725 27.691,171.951 L33.419,167.97 L27.696,171.951 C28.894,172.106 30.117,172.201 31.352,172.201 L129.638,172.201 L129.641,172.199 L224.894,172.199 C242,172.199 256,156.552 256,137.423 L256,84.329 L255.998,84.326 L255.998,13.362" fill="#235A5A"></path>
		<path d="M38.47,40.279 L0.288,13.678 L0.288,120.197 L38.47,93.646 L38.47,40.279" fill="#82BFBE"></path>
		<path d="M224.894,172.198 C242,172.198 256,156.552 256,137.423 L256,84.329 L129.638,172.198 L224.894,172.198" fill="#235A5A"></path>
		<path d="M256,13.36 L127.91,102.314 L127.872,102.287 L27.696,171.951 C28.894,172.106 30.117,172.201 31.352,172.201 L129.638,172.201 L255.998,84.327 L255.998,13.36 L256,13.36" fill="#2C7A79"></path>
		<path d="M76.96,66.88 L0.288,120.197 L0.288,139.288 C0.773,149.332 5.28,158.054 11.664,164.299 C14.948,167.506 19.377,170.725 27.691,171.951 L127.905,102.314 L76.96,66.88" fill="#389798"></path>
	</g>
</svg>
